; generated by PrusaSlicer 2.7.0+MacOS-arm64 on 2023-12-17 at 23:30:44 UTC


;
;
; 

; external perimeters extrusion width = 0.65mm
; perimeters extrusion width = 0.65mm
; infill extrusion width = 0.65mm
; solid infill extrusion width = 0.65mm
; top infill extrusion width = 0.60mm
; first layer extrusion width = 0.65mm

M73 P0 R6
M73 Q0 S6
M201 X1000 Y1000 Z200 E5000 ; sets maximum accelerations, mm/sec^2
M203 X200 Y200 Z12 E120 ; sets maximum feedrates, mm / sec
M204 S1250 T1250 ; sets acceleration (S) and retract acceleration (R), mm/sec^2
M205 X8.00 Y8.00 Z0.40 E4.50 ; sets the jerk limits, mm/sec
M205 S0 T0 ; sets the minimum extruding and travel feed rate, mm/sec

; printing object twist-stem.stl id:0 copy 0
; stop printing object twist-stem.stl id:0 copy 0

;TYPE:Custom
M862.3 P "MK3S" ; printer model check
M862.1 P0.6 ; nozzle diameter check
M115 U3.13.2 ; tell printer latest fw version
G90 ; use absolute coordinates
M83 ; extruder relative mode
M104 S220 ; set extruder temp
M140 S60 ; set bed temp
M190 S60 ; wait for bed temp
M109 S220 ; wait for extruder temp
G28 W ; home all without mesh bed level
G80 X126.089 Y94.5894 W35.8177 H20.8212 ; mesh bed levelling

G1 Z0.2 F720
G1 Y-3 F1000 ; go outside print area
G92 E0
G1 X60 E9 F1000 ; intro line
G1 X100 E12.5 F1000 ; intro line

G92 E0
M221 S95
G21 ; set units to millimeters
G90 ; use absolute coordinates
M83 ; use relative distances for extrusion
M900 K0.04 ; Filament gcode LA 1.5
M900 K18 ; Filament gcode LA 1.0
M107
;LAYER_CHANGE
;Z:0.2
;HEIGHT:0.2
;BEFORE_LAYER_CHANGE
G92 E0.0
;0.2


G1 E-.8 F2100
M73 P1 R6
M73 Q1 S6
G1 Z.2 F720
;AFTER_LAYER_CHANGE
;0.2
G1 X126.785 Y96.125 F10800
G1 Z.2 F720
G1 E.8 F1500
M204 S800
;TYPE:Skirt/Brim
;WIDTH:0.65
G1 F1200
G1 X127.844 Y95.163 E.07222
G1 X129 Y94.893 E.05992
G1 X144 Y94.893 E.75718
G1 X144.938 Y95.068 E.04817
M73 P2 R6
M73 Q2 S6
G1 X158.395 Y100.258 E.72806
G1 X159.229 Y100.685 E.0473
G1 X159.837 Y101.136 E.03821
G1 X160.527 Y101.861 E.05052
G1 X161.062 Y102.707 E.05053
G1 X161.421 Y103.641 E.05051
G1 X161.592 Y104.627 E.05052
G1 X161.568 Y105.62 E.05014
G1 X161.347 Y106.604 E.05091
G1 X160.941 Y107.519 E.05053
G1 X160.364 Y108.337 E.05053
G1 X159.442 Y109.173 E.06283
G1 X158.395 Y109.742 E.06015
G1 X144.938 Y114.932 E.72806
G1 X144 Y115.107 E.04817
G1 X129 Y115.107 E.75718
G1 X127.625 Y114.715 E.07217
G1 X126.663 Y113.656 E.07222
G1 X126.393 Y112.5 E.05992
G1 X126.393 Y97.5 E.75718
G1 X126.761 Y96.211 E.06767
M73 Q3 S6
M204 S1000
; printing object twist-stem.stl id:0 copy 0
;WIPE_START
G1 F8640
M73 P3 R6
G1 X126.785 Y96.125 E-.02062
G1 X127.844 Y95.163 E-.33035
G1 X129 Y94.893 E-.27411
G1 X129.758 Y94.893 E-.17492
;WIPE_END
G1 Z.6 F720
G1 X142.868 Y111.368 F10800
G1 Z.2 F720
G1 E.8 F1500
M204 S800
;TYPE:Perimeter
;WIDTH:0.649999
G1 F1200
G1 X130.132 Y111.368 E.6429
G1 X130.132 Y98.632 E.6429
G1 X142.868 Y98.632 E.6429
G1 X142.868 Y105 E.32145
G1 X142.868 Y111.278 E.31691
M204 S1000
G1 X143.475 Y111.975 F10800
M204 S800
;TYPE:External perimeter
G1 F1200
G1 X129.525 Y111.975 E.70418
G1 X129.525 Y98.025 E.70418
M73 P4 R6
M73 Q4 S6
G1 X143.475 Y98.025 E.70418
G1 X143.475 Y105 E.35209
G1 X143.475 Y111.885 E.34755
M204 S1000
;WIPE_START
G1 F8640
G1 X143.475 Y111.975 E-.02078
G1 X140.1 Y111.975 E-.77922
;WIPE_END
G1 Z.6 F720
G1 X142.625 Y100.133 F10800
G1 Z.2 F720
G1 E.8 F1500
M204 S800
;TYPE:Solid infill
;WIDTH:0.664714
G1 F1200
G1 X141.64 Y99.148 E.07202
G1 X140.761 Y99.148 E.04545
G1 X142.352 Y100.739 E.11633
G1 X142.352 Y101.619 E.0455
G1 X139.881 Y99.148 E.18068
G1 X139.002 Y99.148 E.04545
G1 X142.352 Y102.498 E.24495
G1 X142.352 Y103.378 E.0455
G1 X138.123 Y99.148 E.30925
G1 X137.243 Y99.148 E.0455
M73 Q5 S6
G1 X142.352 Y104.257 E.37356
G1 X142.352 Y105.136 E.04545
M73 P5 R6
G1 X136.364 Y99.148 E.43783
G1 X135.484 Y99.148 E.0455
G1 X142.352 Y106.016 E.50218
G1 X142.352 Y106.895 E.04545
G1 X134.605 Y99.148 E.56645
G1 X133.726 Y99.148 E.04545
G1 X142.352 Y107.774 E.63072
G1 X142.352 Y108.654 E.0455
G1 X132.846 Y99.148 E.69506
G1 X131.967 Y99.148 E.04545
G1 X142.352 Y109.533 E.75933
G1 X142.352 Y110.412 E.04545
M73 P6 R6
M73 Q6 S6
G1 X131.088 Y99.148 E.8236
G1 X130.648 Y99.148 E.02275
G1 X130.648 Y99.588 E.02275
G1 X141.912 Y110.852 E.8236
G1 X141.033 Y110.852 E.04545
G1 X130.648 Y100.467 E.75933
G1 X130.648 Y101.347 E.0455
G1 X140.153 Y110.852 E.69499
G1 X139.274 Y110.852 E.04545
G1 X130.648 Y102.226 E.63072
G1 X130.648 Y103.105 E.04545
M73 P7 R6
M73 Q7 S6
G1 X138.395 Y110.852 E.56645
G1 X137.515 Y110.852 E.0455
G1 X130.648 Y103.985 E.5021
G1 X130.648 Y104.864 E.04545
G1 X136.636 Y110.852 E.43783
G1 X135.757 Y110.852 E.04545
G1 X130.648 Y105.743 E.37356
G1 X130.648 Y106.623 E.0455
G1 X134.877 Y110.852 E.30922
G1 X133.998 Y110.852 E.04545
G1 X130.648 Y107.502 E.24495
G1 X130.648 Y108.381 E.04545
G1 X133.119 Y110.852 E.18068
G1 X132.239 Y110.852 E.0455
G1 X130.648 Y109.261 E.11633
G1 X130.648 Y110.14 E.04545
G1 X131.633 Y111.125 E.07202
M204 S1000
;WIPE_START
G1 F8640
G1 X130.648 Y110.14 E-.32165
G1 X130.648 Y109.261 E-.20296
G1 X131.492 Y110.104 E-.27539
;WIPE_END
G1 Z.6 F720
G1 X155.135 Y105.646 F10800
G1 Z.2 F720
M73 Q8 S6
G1 E.8 F1500
M73 P8 R6
M204 S800
;TYPE:Perimeter
;WIDTH:0.776752
G1 F1200
G1 X155.064 Y105.598 E.00523
;WIDTH:0.819003
G1 X154.981 Y105.542 E.00646
;WIDTH:0.861254
G1 X154.898 Y105.485 E.00685
;WIDTH:0.903504
G1 X154.815 Y105.429 E.00716
G1 X154.634 Y105.429 E.01295
G1 X154.543 Y105.493 E.00796
;WIDTH:0.861254
G1 X154.451 Y105.557 E.00763
;WIDTH:0.819003
G1 X154.359 Y105.622 E.00727
;WIDTH:0.776752
G1 X154.268 Y105.686 E.00679
;WIDTH:0.734501
G1 X154.176 Y105.75 E.00644
;WIDTH:0.69225
G1 X154.085 Y105.814 E.00601
;WIDTH:0.649999
G1 X152.721 Y107.178 E.09737
G1 X152.459 Y106.653 E.02962
G1 X152.227 Y105.892 E.04016
G1 X152.152 Y105.379 E.02617
G1 X152.152 Y104.621 E.03826
G1 X152.227 Y104.109 E.02612
G1 X152.474 Y103.312 E.04212
G1 X152.721 Y102.822 E.0277
G1 X154.085 Y104.186 E.09737
;WIDTH:0.69225
G1 X154.176 Y104.25 E.00601
;WIDTH:0.734501
G1 X154.268 Y104.314 E.00644
;WIDTH:0.776752
G1 X154.359 Y104.378 E.00679
;WIDTH:0.819003
G1 X154.451 Y104.443 E.00727
;WIDTH:0.861254
G1 X154.543 Y104.507 E.00763
;WIDTH:0.903504
G1 X154.634 Y104.571 E.00796
G1 X154.815 Y104.571 E.01295
G1 X154.878 Y104.533 E.00526
;WIDTH:0.856905
G1 X154.941 Y104.495 E.00498
;WIDTH:0.810306
G1 X155.004 Y104.456 E.00473
;WIDTH:0.763707
G1 X155.067 Y104.418 E.00441
;WIDTH:0.717108
G1 X155.348 Y104.191 E.02025
;WIDTH:0.683554
G1 X155.63 Y103.964 E.01928
;WIDTH:0.649999
G1 X155.978 Y103.741 E.02086
G1 X156.364 Y103.65 E.02002
G1 X156.766 Y103.663 E.0203
G1 X157.139 Y103.803 E.02011
G1 X157.464 Y104.036 E.02019
G1 X157.696 Y104.36 E.02012
G1 X157.837 Y104.734 E.02018
G1 X157.85 Y105.132 E.0201
G1 X157.759 Y105.522 E.02022
G1 X157.55 Y105.86 E.02006
G1 X157.257 Y106.133 E.02022
G1 X156.897 Y106.297 E.01997
G1 X156.5 Y106.363 E.02032
G1 X156.13 Y106.305 E.01891
G1 X155.707 Y106.09 E.02395
G1 X155.314 Y105.768 E.02565
;WIDTH:0.69225
G1 X155.231 Y105.711 E.00544
;WIDTH:0.734501
G1 X155.21 Y105.697 E.00145
M204 S1000
G1 X154.835 Y106.179 F10800
M204 S800
;TYPE:External perimeter
;WIDTH:0.649999
G1 F1200
G1 X154.704 Y106.159 E.00669
G1 X154.511 Y106.246 E.01069
G1 X152.644 Y108.113 E.13328
G1 X152.377 Y107.779 E.02158
G1 X152.131 Y107.375 E.02388
G1 X151.904 Y106.904 E.02639
G1 X151.725 Y106.385 E.02771
G1 X151.561 Y105.566 E.04216
G1 X151.526 Y105 E.02863
G1 X151.561 Y104.434 E.02863
G1 X151.725 Y103.615 E.04216
G1 X151.904 Y103.096 E.02771
G1 X152.131 Y102.625 E.02639
G1 X152.632 Y101.875 E.04553
G1 X154.583 Y103.806 E.13857
G1 X154.751 Y103.84 E.00865
G1 X154.921 Y103.769 E.0093
G1 X155.406 Y103.358 E.03209
G1 X155.745 Y103.177 E.0194
G1 X156.304 Y103.046 E.02898
G1 X156.691 Y103.046 E.01954
G1 X157.069 Y103.121 E.01945
G1 X157.425 Y103.268 E.01944
G1 X157.745 Y103.482 E.01943
G1 X158.018 Y103.754 E.01945
G1 X158.231 Y104.074 E.0194
G1 X158.379 Y104.429 E.01941
G1 X158.454 Y104.807 E.01945
G1 X158.454 Y105.192 E.01943
G1 X158.435 Y105.385 E.00979
G1 X158.323 Y105.755 E.01951
G1 X158.141 Y106.096 E.01951
G1 X157.895 Y106.395 E.01954
G1 X157.596 Y106.641 E.01954
G1 X157.255 Y106.823 E.01951
G1 X156.698 Y106.954 E.02888
G1 X156.283 Y106.952 E.02095
G1 X155.752 Y106.825 E.02756
G1 X155.236 Y106.516 E.03036
G1 X154.904 Y106.237 E.02189
M204 S1000
;WIPE_START
G1 F8640
G1 X154.835 Y106.179 E-.02081
G1 X154.704 Y106.159 E-.0306
G1 X154.511 Y106.246 E-.04888
G1 X152.644 Y108.113 E-.60966
G1 X152.401 Y107.808 E-.09005
;WIPE_END
G1 Z.6 F720
G1 X157.613 Y104.937 F10800
G1 Z.2 F720
G1 E.8 F1500
M204 S800
;TYPE:Solid infill
;WIDTH:0.678646
G1 F1200
G1 X156.995 Y104.319 E.0462
G1 X156.823 Y104.22 E.01049
G1 X156.665 Y104.172 E.00873
G1 X156.5 Y104.155 E.00877
G1 X156.335 Y104.172 E.00877
G1 X156.177 Y104.22 E.00873
G1 X156.06 Y104.282 E.007
G1 X157.218 Y105.44 E.08657
G1 X157.097 Y105.597 E.01048
G1 X156.969 Y105.702 E.00875
G1 X156.823 Y105.78 E.00875
G1 X156.697 Y105.819 E.00697
G1 X155.371 Y104.492 E.09916
M204 S1000
;WIPE_START
G1 F8640
G1 X156.697 Y105.819 E-.43316
G1 X156.823 Y105.78 E-.03046
G1 X156.969 Y105.702 E-.03822
G1 X157.097 Y105.597 E-.03823
G1 X157.218 Y105.44 E-.04577
G1 X156.562 Y104.784 E-.21416
;WIPE_END
G1 Z.6 F720
G1 X154.366 Y105.285 F10800
M73 P8 R5
G1 Z.2 F720
G1 E.8 F1500
M204 S800
G1 F1200
G1 X152.857 Y103.777 E.11277
G1 X152.724 Y104.249 E.02592
G1 X152.686 Y104.505 E.01368
G1 X153.675 Y105.494 E.07393
G1 X153.226 Y105.944 E.0336
G1 X152.381 Y105.099 E.06317
M204 S1000
; stop printing object twist-stem.stl id:0 copy 0
M106 S84.15
;LAYER_CHANGE
;Z:0.6
;HEIGHT:0.4
;BEFORE_LAYER_CHANGE
G92 E0.0
;0.6


;WIPE_START
G1 F8640
M73 Q9 S6
G1 X153.226 Y105.944 E-.27593
G1 X153.675 Y105.494 E-.14678
G1 X152.686 Y104.505 E-.32295
G1 X152.721 Y104.272 E-.05434
;WIPE_END
G1 Z.6 F720
;AFTER_LAYER_CHANGE
;0.6
G1 Z1
M73 P9 R5
G1 X154.804 Y98.873 F10800
G1 Z.6 F720
G1 E.8 F1500
;TYPE:Skirt/Brim
;WIDTH:0.65
G1 F3000
G1 X158.395 Y100.258 E.3611
G1 X159.229 Y100.685 E.08791
G1 X159.837 Y101.136 E.07102
M73 Q9 S5
G1 X160.527 Y101.861 E.0939
G1 X161.062 Y102.707 E.09391
G1 X161.421 Y103.641 E.09388
G1 X161.592 Y104.627 E.09389
G1 X161.568 Y105.62 E.09319
G1 X161.347 Y106.604 E.09462
G1 X160.941 Y107.519 E.09392
G1 X160.364 Y108.337 E.09392
G1 X159.442 Y109.173 E.11677
G1 X158.395 Y109.742 E.1118
G1 X144.938 Y114.932 E1.35318
G1 X144 Y115.107 E.08952
G1 X129 Y115.107 E1.4073
G1 X127.625 Y114.715 E.13414
G1 X126.663 Y113.656 E.13423
G1 X126.393 Y112.5 E.11137
G1 X126.393 Y97.5 E1.4073
G1 X126.785 Y96.125 E.13414
G1 X127.844 Y95.163 E.13423
G1 X129 Y94.893 E.11137
G1 X144 Y94.893 E1.4073
G1 X144.938 Y95.068 E.08952
G1 X154.72 Y98.84 E.98362
; printing object twist-stem.stl id:0 copy 0
;WIPE_START
G1 F8640
G1 X154.804 Y98.873 E-.02084
G1 X157.952 Y100.087 E-.77916
;WIPE_END
G1 Z1 F720
G1 X143.111 Y111.611 F10800
G1 Z.6 F720
G1 E.8 F1500
M204 S800
;TYPE:Perimeter
;WIDTH:0.65
G1 F2521.176
G1 X129.889 Y111.611 E1.24049
G1 X129.889 Y98.389 E1.24049
G1 X143.111 Y98.389 E1.24049
G1 F2544.711
M73 P10 R5
M73 Q10 S5
G1 X143.111 Y105 E.62024
G1 F2539.209
G1 X143.111 Y111.521 E.6118
M204 S1000
G1 X143.675 Y112.175 F10800
M204 S800
;TYPE:External perimeter
G1 F1992.785
G1 X129.325 Y112.175 E1.34632
G1 X129.325 Y111.2 E.09147
G1 X129.325 Y97.825 E1.25484
G1 X143.675 Y97.825 E1.34632
G1 F2006.895
G1 X143.675 Y105 E.67316
G1 F2003.596
G1 X143.675 Y112.085 E.66471
M204 S1000
;WIPE_START
G1 F8640
G1 X143.675 Y112.175 E-.02078
G1 X140.3 Y112.175 E-.77922
;WIPE_END
G1 Z1 F720
G1 X130.522 Y98.914 F10800
G1 Z.6 F720
G1 E.8 F1500
;TYPE:Solid infill
;WIDTH:0.786881
G1 F3209.517
G1 X130.46 Y98.852 E.01022
G1 X130.375 Y98.875 E.01027
G1 X130.352 Y98.96 E.01027
G1 X130.414 Y99.022 E.01022
G1 X130.499 Y98.999 E.01027
;WIDTH:0.65
G1 F3988.237
G1 X130.369 Y99.9 E.08541
G1 X131.4 Y98.869 E.13679
G1 X132.198 Y98.869 E.07487
G1 X130.369 Y100.698 E.24267
G1 X130.369 Y101.496 E.07487
G1 X132.996 Y98.869 E.34855
G1 X133.794 Y98.869 E.07487
G1 X130.369 Y102.294 E.45443
G1 X130.369 Y103.092 E.07487
G1 X134.592 Y98.869 E.56031
G1 X135.389 Y98.869 E.07477
G1 X130.369 Y103.889 E.66606
G1 X130.369 Y104.687 E.07487
M73 Q11 S5
G1 X136.187 Y98.869 E.77194
G1 X136.985 Y98.869 E.07487
M73 P11 R5
G1 X130.369 Y105.485 E.87782
G1 X130.369 Y106.283 E.07487
G1 X137.783 Y98.869 E.9837
G1 X138.581 Y98.869 E.07487
G1 X130.369 Y107.081 E1.08958
G1 X130.369 Y107.879 E.07487
G1 X139.379 Y98.869 E1.19546
G1 X140.176 Y98.869 E.07477
G1 X130.369 Y108.676 E1.30121
G1 X130.369 Y109.474 E.07487
G1 X140.974 Y98.869 E1.40709
G1 X141.772 Y98.869 E.07487
G1 X130.369 Y110.272 E1.51297
G1 X130.369 Y111.07 E.07487
G1 X142.57 Y98.869 E1.61885
G1 X142.631 Y99.605 E.06929
G1 X131.105 Y111.131 E1.52929
G1 X131.903 Y111.131 E.07487
G1 X142.631 Y100.403 E1.42341
G1 X142.631 Y101.201 E.07487
G1 X132.701 Y111.131 E1.31753
G1 X133.499 Y111.131 E.07487
G1 X142.631 Y101.999 E1.21165
G1 X142.631 Y102.797 E.07487
G1 X134.297 Y111.131 E1.10577
G1 X135.094 Y111.131 E.07477
M73 Q12 S5
G1 X142.631 Y103.594 E1.00002
G1 X142.631 Y104.392 E.07487
M73 P12 R5
G1 X135.892 Y111.131 E.89414
G1 X136.69 Y111.131 E.07487
G1 X142.631 Y105.19 E.78826
G1 X142.631 Y105.988 E.07487
G1 X137.488 Y111.131 E.68238
G1 X138.286 Y111.131 E.07487
G1 X142.631 Y106.786 E.5765
G1 X142.631 Y107.584 E.07487
G1 X139.084 Y111.131 E.47062
G1 X139.881 Y111.131 E.07477
G1 X142.631 Y108.381 E.36487
G1 X142.631 Y109.179 E.07487
G1 X140.679 Y111.131 E.25899
G1 X141.477 Y111.131 E.07487
G1 X142.631 Y109.977 E.15311
G1 X142.62 Y111.002 E.09617
;WIDTH:0.858733
G1 F2911.144
G1 X142.552 Y110.934 E.01236
G1 X142.459 Y110.959 E.01238
G1 X142.434 Y111.052 E.01238
G1 X142.502 Y111.12 E.01236
G1 X142.595 Y111.095 E.01238
;WIPE_START
G1 F8640
G1 X142.502 Y111.12 E-.02224
G1 X142.434 Y111.052 E-.02221
G1 X142.459 Y110.959 E-.02224
G1 X142.552 Y110.934 E-.02224
G1 X142.62 Y111.002 E-.02221
;WIPE_END
G1 E-.68886 F2100
G1 Z1 F720
G1 X155.281 Y106.091 F10800
G1 Z.6 F720
G1 E.8 F1500
M204 S800
;TYPE:Perimeter
;WIDTH:0.65
G1 X155.047 Y105.925 E.02692
G1 X154.803 Y105.867 E.02353
G1 X154.396 Y105.932 E.03867
G1 X154.131 Y106.112 E.03006
G1 X152.68 Y107.562 E.19245
G1 X152.427 Y107.158 E.04472
G1 X152.089 Y106.338 E.08321
G1 X151.971 Y105.847 E.04738
G1 X151.894 Y105.068 E.07344
G1 X151.912 Y104.548 E.04882
G1 X151.999 Y104.044 E.04798
G1 X152.269 Y103.176 E.08528
G1 X152.673 Y102.431 E.07951
G1 X154.131 Y103.888 E.19338
G1 X154.396 Y104.068 E.03006
G1 X154.656 Y104.133 E.02514
G1 X155.047 Y104.075 E.03709
G1 X155.486 Y103.764 E.05047
G1 X155.885 Y103.516 E.04408
G1 X156.343 Y103.409 E.04413
G1 X156.813 Y103.424 E.04412
G1 X157.254 Y103.59 E.04421
G1 X157.636 Y103.864 E.04411
G1 X157.91 Y104.246 E.04411
G1 X158.076 Y104.687 E.04421
G1 X158.091 Y105.157 E.04412
G1 X158.076 Y105.313 E.0147
G1 X157.91 Y105.754 E.04421
G1 X157.636 Y106.136 E.04411
G1 X157.254 Y106.41 E.04411
G1 X156.813 Y106.576 E.04421
G1 X156.343 Y106.591 E.04412
G1 X155.885 Y106.484 E.04413
G1 X155.486 Y106.236 E.04408
G1 X155.355 Y106.143 E.01507
M204 S1000
G1 X154.726 Y106.428 F10800
M204 S800
;TYPE:External perimeter
G1 F1500
G1 X154.53 Y106.51 E.01993
G1 X152.622 Y108.418 E.25316
G1 X152.5 Y108.283 E.01707
G1 X152.197 Y107.875 E.04768
G1 X151.936 Y107.439 E.04767
G1 X151.719 Y106.98 E.04763
G1 X151.548 Y106.502 E.04763
G1 X151.425 Y106.01 E.04758
G1 X151.35 Y105.507 E.04771
G1 X151.325 Y105 E.04762
G1 X151.35 Y104.493 E.04762
G1 X151.424 Y103.997 E.04705
G1 X151.722 Y103.013 E.09646
G1 X151.936 Y102.561 E.04692
G1 X152.214 Y102.103 E.05027
G1 X152.622 Y101.582 E.06208
G1 X154.53 Y103.49 E.25316
G1 X154.705 Y103.571 E.01809
G1 X154.835 Y103.552 E.01233
G1 X155.128 Y103.328 E.0346
G1 X155.48 Y103.092 E.03976
G1 X155.872 Y102.93 E.03979
G1 X156.288 Y102.847 E.0398
G1 X156.712 Y102.847 E.03978
G1 X157.128 Y102.93 E.0398
G1 X157.52 Y103.092 E.03979
G1 X157.872 Y103.328 E.03976
G1 X158.172 Y103.628 E.0398
G1 X158.408 Y103.98 E.03976
G1 X158.57 Y104.372 E.03979
G1 X158.653 Y104.788 E.0398
G1 X158.653 Y105.212 E.03978
G1 X158.632 Y105.424 E.01999
M73 Q13 S5
G1 X158.508 Y105.832 E.04001
